outputs/icons/date_time/clock_on_round.svg

<svg xmlns="http://www.w3.org/2000/svg" width="1200" height="1200" fill="none"><path fill="#000" d="M599.5 100C323.5 100 100 324 100 600s223.5 500 499.5 500q13.628 0 27.075-.72c29.36-1.565 45.115-33.25 36.515-61.365-6.85-22.375-28.08-38.745-51.475-38.08q-5.789.165-11.615.165c-221 0-400-179-400-400s179-400 400-400 400 179 400 400q0 5.821-.165 11.605c-.665 23.4 15.71 44.635 38.095 51.485 28.125 8.61 59.835-7.16 61.375-36.54.46-8.79.695-17.645.695-26.55 0-276-224-500-500.5-500"/><path fill="#000" d="M581.97 351.045h3c20 0 36 16 36 36v227l154.575 91.865a301.6 301.6 0 0 0-54.64 50.395l-150.435-90.26c-15.5-9-24.5-25.5-24.5-43v-236c0-20 16-36 36-36M950 700c-138 0-250 112-250 250s112 250 250 250 250-112 250-250-112-250-250-250"/></svg>

<svg width="1200" height="1200" viewBox="0 0 1200 1200" fill="none" xmlns="http://www.w3.org/2000/svg"><path d="M599.5 100C323.5 100 100 324 100 600C100 876 323.5 1100 599.5 1100C608.585 1100 617.61 1099.76 626.575 1099.28C655.935 1097.715 671.69 1066.03 663.09 1037.915C656.24 1015.54 635.01 999.17 611.615 999.835C607.755 999.945 603.885 1000 600 1000C379 1000 200 821 200 600C200 379 379 200 600 200C821 200 1000 379 1000 600C1000 603.88 999.945 607.75 999.835 611.605C999.17 635.005 1015.545 656.24 1037.93 663.09C1066.055 671.7 1097.765 655.93 1099.305 626.55C1099.765 617.76 1100 608.905 1100 600C1100 324 876 100 599.5 100Z" fill="#1D1E23"/><path d="M581.97 351.045H584.97C604.97 351.045 620.97 367.045 620.97 387.045V614.045L775.545 705.91C755.31 720.4 736.95 737.34 720.905 756.305L570.47 666.045C554.97 657.045 545.97 640.545 545.97 623.045V387.045C545.97 367.045 561.97 351.045 581.97 351.045Z" fill="#1D1E23"/><path d="M950 700C812 700 700 812 700 950C700 1088 812 1200 950 1200C1088 1200 1200 1088 1200 950C1200 812 1088 700 950 700Z" fill="#1D1E23"/></svg>
